public/svgs/comming.svg

<svg width="24" height="24" viewBox="0 0 24 24" fill="none" xmlns="http://www.w3.org/2000/svg">
<g id="Icon/Funtion/comming">
<path id="Union" fill-rule="evenodd" clip-rule="evenodd" d="M12.0002 2.8002C11.5922 2.8002 11.1908 2.8267 10.7976 2.878C10.3595 2.93515 9.95797 2.62631 9.90082 2.18819C9.84367 1.75008 10.1525 1.34859 10.5906 1.29144C11.0523 1.23122 11.5228 1.2002 12.0002 1.2002C17.9649 1.2002 22.8002 6.03552 22.8002 12.0002C22.8002 17.9649 17.9649 22.8002 12.0002 22.8002C6.03552 22.8002 1.2002 17.9649 1.2002 12.0002C1.2002 11.5228 1.23122 11.0523 1.29144 10.5906C1.34859 10.1525 1.75008 9.84367 2.18819 9.90082C2.62631 9.95797 2.93515 10.3595 2.878 10.7976C2.8267 11.1908 2.8002 11.5922 2.8002 12.0002C2.8002 17.0812 6.91917 21.2002 12.0002 21.2002C17.0812 21.2002 21.2002 17.0812 21.2002 12.0002C21.2002 6.91917 17.0812 2.8002 12.0002 2.8002ZM8.9113 2.45256C9.08054 2.86068 8.88689 3.32874 8.47876 3.49798C7.73126 3.80796 7.03314 4.21385 6.39981 4.70054C6.04948 4.96975 5.54724 4.904 5.27802 4.55366C5.0088 4.20333 5.07456 3.70108 5.42489 3.43186C6.16781 2.86096 6.98742 2.3843 7.86587 2.02002C8.274 1.85078 8.74205 2.04443 8.9113 2.45256ZM4.55366 5.27802C4.904 5.54724 4.96975 6.04948 4.70054 6.39982C4.21385 7.03314 3.80796 7.73126 3.49798 8.47876C3.32874 8.88689 2.86068 9.08054 2.45256 8.9113C2.04443 8.74205 1.85078 8.274 2.02002 7.86587C2.3843 6.98742 2.86096 6.16781 3.43186 5.42489C3.70108 5.07456 4.20333 5.0088 4.55366 5.27802ZM11.4394 6.00028C11.4394 5.55845 11.7975 5.20024 12.2394 5.2002C12.6812 5.20015 13.0394 5.55829 13.0394 6.00012L13.04 12.0045C13.0401 12.2167 12.9558 12.4202 12.8057 12.5703L8.56603 16.81C8.25361 17.1224 7.74707 17.1224 7.43465 16.81C7.12223 16.4976 7.12223 15.991 7.43465 15.6786L11.44 11.6733L11.4394 6.00028Z" fill="#333333"/>
</g>
</svg>

<svg width="24" height="24" fill="none" xmlns="http://www.w3.org/2000/svg"><path fill-rule="evenodd" clip-rule="evenodd" d="M12 2.8c-.408 0-.81.027-1.202.078a.8.8 0 0 1-.207-1.587c.461-.06.932-.09 1.41-.09 5.964 0 10.8 4.835 10.8 10.8 0 5.964-4.836 10.8-10.8 10.8-5.965 0-10.8-4.836-10.8-10.8 0-.478.03-.949.09-1.41a.8.8 0 1 1 1.587.207A9.2 9.2 0 1 0 12 2.8zm-3.089-.347a.8.8 0 0 1-.432 1.045 9.19 9.19 0 0 0-2.08 1.203.8.8 0 1 1-.974-1.27 10.79 10.79 0 0 1 2.44-1.411.8.8 0 0 1 1.046.433zM4.554 5.278A.8.8 0 0 1 4.7 6.4a9.19 9.19 0 0 0-1.203 2.079.8.8 0 1 1-1.478-.613 10.79 10.79 0 0 1 1.412-2.441.8.8 0 0 1 1.122-.147zM11.439 6a.8.8 0 0 1 1.6 0l.001 6.005a.8.8 0 0 1-.234.565l-4.24 4.24a.8.8 0 0 1-1.131-1.131l4.005-4.006V6z" fill="#333"/></svg>
